icons/aerospike-logo.svg

<?xml version="1.0" encoding="UTF-8"?>
<svg width="512px" height="89px" viewBox="0 0 512 89" version="1.1" xmlns="http://www.w3.org/2000/svg" xmlns:xlink="http://www.w3.org/1999/xlink" preserveAspectRatio="xMidYMid">
    <g>
        <polygon fill="#C4373A" points="0 88.87476 511.995628 88.87476 511.995628 0 0 6.10705224e-15"></polygon>
        <path d="M212.317703,26.0049273 C215.20678,26.0049273 217.839155,26.5271744 220.220222,27.5639028 C222.586189,28.6101227 224.62168,30.0269417 226.334676,31.8068097 C228.024591,33.5884035 229.343691,35.6599189 230.264796,38.0138057 C231.191725,40.3733012 231.659181,42.8499301 231.659181,45.4378682 C231.690028,45.4801484 231.690028,45.5146629 231.659181,45.5491774 C231.659181,48.1448812 231.178351,50.625393 230.241714,53.0002043 C229.295371,55.3752312 227.984037,57.4523552 226.278806,59.2341647 C224.575301,61.0157585 222.524279,62.4384018 220.137388,63.5057617 C217.750281,64.5675131 215.108414,65.0955845 212.199922,65.0955845 C209.304806,65.0955845 206.66488,64.5752789 204.306679,63.5249604 C201.929279,62.4862906 199.899612,61.0733545 198.19244,59.2934864 C196.483327,57.506284 195.177602,55.4403773 194.262321,53.0867061 C193.329567,50.7252693 192.865995,48.2523075 192.865995,45.6626437 L192.865995,45.5491774 C192.865995,42.9631807 193.329567,40.4731774 194.275911,38.1000919 C195.218156,35.7252806 196.554729,33.6401752 198.240761,31.85664 C199.953757,30.0750462 201.983424,28.6621101 204.386062,27.5928087 C206.774895,26.532783 209.413095,26.0049273 212.317703,26.0049273 Z M264.998001,26.1112751 C267.796262,26.1112751 270.227806,26.4913657 272.3155,27.272687 C274.401253,28.0483997 276.407838,29.2080859 278.371927,30.7534713 L275.872864,34.0500346 C274.096016,32.6081926 272.3155,31.561757 270.517512,30.9167678 C268.719524,30.2678958 266.859626,29.9434598 264.893595,29.9434598 C262.39259,29.9434598 260.422677,30.5289115 258.972422,31.7039135 C257.527776,32.8711497 256.80556,34.3168746 256.80556,36.0486381 L256.80556,36.1560644 C256.80556,37.0525777 256.95613,37.851372 257.234187,38.5520157 C257.527776,39.2584838 258.053043,39.9017472 258.81797,40.5027304 C259.582681,41.099615 260.623724,41.6335107 261.969788,42.1249105 C263.304204,42.6107017 265.023024,43.0714698 267.124308,43.4957821 C271.357508,44.4000612 274.482362,45.6863724 276.498438,47.3527741 C278.505239,49.0344917 279.511336,51.3057595 279.511336,54.1894435 L279.511336,54.2949283 C279.511336,55.9134412 279.190783,57.3861305 278.538028,58.6991904 C277.900589,60.0141917 277.002565,61.1413048 275.886238,62.0723327 C274.74877,63.011342 273.383507,63.7253601 271.788292,64.2361742 C270.198685,64.7372812 268.468431,64.9924725 266.581568,64.9924725 C263.541706,64.9924725 260.764586,64.4952485 258.242441,63.5008003 C255.718139,62.510235 253.325423,60.9991484 251.036898,58.9431645 L253.705945,55.8060149 C255.69894,57.6126317 257.705525,58.9487731 259.73325,59.8319121 C261.761191,60.7150511 264.096095,61.1527378 266.749611,61.1527378 C269.316193,61.1527378 271.367215,60.559736 272.898795,59.3480624 C274.441807,58.1407031 275.212343,56.6007106 275.212343,54.7345564 L275.212343,54.61958 C275.212343,53.7573654 275.069324,52.9741027 274.775951,52.273459 C274.482362,51.5745409 273.984059,50.9295518 273.261844,50.3574744 C272.533589,49.7795728 271.527492,49.2553843 270.233631,48.7907332 C268.943437,48.3243564 267.303784,47.8672554 265.304964,47.4410017 C263.138103,46.9707421 261.232041,46.4351207 259.621294,45.8207631 C258.004723,45.2102884 256.664483,44.4690902 255.617831,43.6070913 C254.563414,42.7450924 253.790721,41.7353284 253.269337,40.5737008 C252.761543,39.4293304 252.51045,38.0798146 252.51045,36.5322721 L252.51045,36.4267872 C252.51045,34.9484894 252.817413,33.5853835 253.427672,32.318271 C254.053463,31.0589243 254.914815,29.9702085 256.038908,29.0467307 C257.162785,28.1310187 258.485768,27.412902 260.01519,26.8869878 C261.531238,26.3742322 263.194189,26.1112751 264.998001,26.1112751 Z M70.9544158,26.1956198 L70.9544158,30.7821614 L60.9156665,35.2075636 L60.9156665,55.7866006 L70.9544158,60.2598916 L70.9544158,64.6371892 L32.6672986,47.408213 L28.1500016,45.4864042 L32.6672986,43.4148888 L70.9544158,26.1956198 Z M120.298891,26.6505636 L120.298891,30.595999 L97.1025782,30.595999 L97.1025782,43.3803744 L117.850089,43.3803744 L117.850089,47.3333597 L97.1025782,47.3333597 L97.1025782,60.5114158 L120.565515,60.5114158 L120.565515,64.4490854 L92.8191167,64.4490854 L92.8191167,26.6505636 L120.298891,26.6505636 Z M383.749781,26.6505636 L383.749781,49.2223798 L405.578889,26.6505636 L411.115657,26.6505636 L394.825474,43.1691889 L411.830322,64.4490854 L406.453615,64.4490854 L391.837815,46.1469248 L383.749781,54.2985955 L383.749781,64.4490854 L379.446905,64.4490854 L379.446905,26.6505636 L383.749781,26.6505636 Z M459.025408,26.6505636 L459.025408,30.595999 L435.82888,30.595999 L435.82888,43.3803744 L479.21853,43.3803744 L479.21853,47.3333597 L435.82888,47.3333597 L435.82888,60.5114158 L459.299582,60.5114158 L459.299582,64.4490854 L431.545419,64.4490854 L431.545419,26.6505636 L459.025408,26.6505636 Z M355.281814,26.6497008 L355.281814,64.4482225 L350.983037,64.4482225 L350.983037,26.6497008 L355.281814,26.6497008 Z M315.527401,26.6475436 C317.665357,26.6475436 319.602481,26.9238751 321.365739,27.4903438 C323.115407,28.0488311 324.617865,28.8323096 325.873329,29.8632136 C327.120811,30.8885091 328.080745,32.1344815 328.739324,33.6127794 C329.411278,35.0910773 329.762894,36.7652448 329.762894,38.6389491 L329.762894,38.7465911 C329.762894,40.791142 329.35929,42.5902087 328.567399,44.1241612 C327.759976,45.6484065 326.684419,46.936659 325.330589,47.9753289 C323.976759,49.0217645 322.383485,49.8086944 320.581614,50.3233914 C318.762485,50.8531885 316.852325,51.1163613 314.809069,51.1163613 L305.579684,51.1163613 L305.579684,64.4477911 L301.290182,64.4477911 L301.290182,26.6475436 L315.527401,26.6475436 Z M158.590106,26.6475436 C160.942267,26.6475436 163.039669,26.9875112 164.874328,27.6460904 C166.695614,28.3102782 168.205838,29.2434632 169.399175,30.4296824 C170.339695,31.3628674 171.062126,32.466899 171.575744,33.7243043 C172.081813,34.983651 172.332905,36.3681126 172.332905,37.8828664 L172.332905,37.9864099 C172.332905,39.5358938 172.081813,40.9257484 171.575744,42.1794865 C171.062126,43.4159674 170.351343,44.4986432 169.438004,45.4162966 C168.512801,46.3361073 167.415888,47.0904642 166.137342,47.685623 C164.874328,48.2732319 163.497417,48.7186843 162.012216,49.0064487 L173.69256,64.4460653 L168.42975,64.4460653 L157.394611,49.7629627 L146.540889,49.7629627 L146.540889,64.4460653 L142.241896,64.4460653 L142.241896,26.6475436 L158.590106,26.6475436 Z M212.199922,29.9406555 C210.033061,29.9406555 208.034026,30.3438276 206.207132,31.1579377 C204.372472,31.9757149 202.804221,33.0795308 201.504535,34.4793083 C200.206791,35.8885772 199.179339,37.5202488 198.429943,39.3941688 C197.694138,41.2642059 197.323323,43.2800667 197.323323,45.4378682 L197.323323,45.5491774 C197.323323,47.7063317 197.694138,49.734704 198.429943,51.6237241 C199.179339,53.509077 200.220166,55.1659872 201.552856,56.5616661 C202.89892,57.9726608 204.482487,59.0863996 206.309381,59.9136683 C208.134549,60.7430941 210.145017,61.1501492 212.317703,61.1501492 C214.490389,61.1501492 216.496974,60.7566842 218.318044,59.9425742 C220.144938,59.132347 221.707365,58.0188239 223.012874,56.623145 C224.316443,55.2138761 225.345837,53.574223 226.085525,51.7082845 C226.832979,49.8343645 227.192145,47.8204452 227.192145,45.6626437 L227.192145,45.5491774 C227.192145,43.3894344 226.832979,41.3638664 226.085525,39.4767878 C225.345837,37.5836691 224.293361,35.9364661 222.970378,34.5388457 C221.622373,33.1295768 220.038806,32.0102294 218.20997,31.1846864 C216.373153,30.357202 214.372393,29.9406555 212.199922,29.9406555 Z M57.0532816,36.8853983 L37.667151,45.4730298 L57.0532816,54.1085502 L57.0532816,36.8853983 Z M315.220438,30.5927633 L305.579684,30.5927633 L305.579684,47.170926 L315.0099,47.170926 C316.593682,47.170926 318.03423,46.9711735 319.310834,46.5777086 C320.581614,46.1803607 321.670761,45.621442 322.60373,44.8862838 C323.538425,44.1431441 324.231735,43.2677709 324.718389,42.2426911 C325.216691,41.22322 325.465843,40.0999897 325.465843,38.8790403 L325.465843,38.7713983 C325.465843,36.083584 324.523382,34.050466 322.651835,32.6623372 C320.788269,31.2783069 318.302796,30.5927633 315.220438,30.5927633 Z M158.294576,30.592979 L146.540889,30.592979 L146.540889,45.9251694 L158.242373,45.9251694 C159.657898,45.9251694 160.961682,45.7484984 162.164727,45.3895479 C163.35828,45.0267146 164.387674,44.5197833 165.260675,43.8478297 C166.137342,43.1834262 166.815336,42.3772976 167.303931,41.4152067 C167.79641,40.4593716 168.037795,39.380363 168.037795,38.1514322 L168.037795,38.0440059 C168.037795,35.7037091 167.186151,33.8817765 165.484587,32.5665595 C163.775474,31.2515582 161.386426,30.592979 158.294576,30.592979 Z" fill="#FFFFFF"></path>
    </g>
</svg>

<svg xmlns="http://www.w3.org/2000/svg" viewBox="0 0 511.996 88.875">
  <path fill="#c4373a" d="M511.996 0H0v88.875h511.996z"/>
  <path fill="#fff" d="M212.318 26.005c2.889 0 5.521.522 7.902 1.559 2.366 1.046 4.402 2.463 6.115 4.243a19.003 19.003 0 0 1 3.93 6.207 20.133 20.133 0 0 1 1.394 7.424c.031.042.031.077 0 .111 0 2.596-.48 5.076-1.417 7.451-.947 2.375-2.258 4.452-3.963 6.234-1.704 1.782-3.755 3.204-6.142 4.272-2.387 1.062-5.029 1.59-7.937 1.59-2.895 0-5.535-.52-7.893-1.571-2.378-1.039-4.407-2.452-6.115-4.232-1.709-1.787-3.014-3.853-3.93-6.206a20.018 20.018 0 0 1-1.396-7.424v-.114c0-2.586.464-5.076 1.41-7.449a19.473 19.473 0 0 1 3.965-6.243c1.713-1.782 3.742-3.195 6.145-4.264 2.389-1.06 5.027-1.588 7.932-1.588zm52.68.106c2.798 0 5.23.38 7.317 1.162 2.086.775 4.093 1.935 6.057 3.48l-2.5 3.297c-1.776-1.442-3.557-2.488-5.354-3.133a16.38 16.38 0 0 0-5.624-.974c-2.501 0-4.471.586-5.922 1.76-1.444 1.168-2.166 2.614-2.166 4.346v.107c0 .897.15 1.695.428 2.396.294.706.819 1.35 1.584 1.95.765.598 1.806 1.132 3.152 1.623 1.334.486 3.053.946 5.154 1.37 4.234.905 7.358 2.191 9.374 3.858 2.007 1.681 3.013 3.953 3.013 6.836v.106c0 1.618-.32 3.091-.973 4.404a10.113 10.113 0 0 1-2.652 3.373c-1.137.94-2.502 1.653-4.098 2.164-1.59.501-3.32.756-5.206.756-3.04 0-5.817-.497-8.34-1.491-2.524-.99-4.917-2.502-7.205-4.558l2.669-3.137c1.993 1.807 4 3.143 6.027 4.026 2.028.883 4.363 1.32 7.017 1.32 2.566 0 4.617-.592 6.149-1.804 1.543-1.207 2.313-2.747 2.313-4.613v-.115c0-.863-.143-1.646-.436-2.347-.294-.698-.792-1.343-1.514-1.916-.728-.577-1.735-1.102-3.028-1.566-1.29-.467-2.93-.924-4.929-1.35-2.167-.47-4.073-1.006-5.684-1.62-1.616-.61-2.957-1.352-4.003-2.214-1.055-.862-1.827-1.872-2.349-3.033-.507-1.145-.759-2.494-.759-4.042v-.105c0-1.479.307-2.842.918-4.109a9.862 9.862 0 0 1 2.61-3.271c1.125-.916 2.448-1.634 3.977-2.16 1.516-.513 3.18-.776 4.983-.776zm-194.044.085v4.586l-10.038 4.426v20.579l10.038 4.473v4.377L32.667 47.408l-4.517-1.922 4.517-2.071zm49.345.455v3.945H97.103V43.38h20.747v3.953H97.103v13.178h23.463v3.938H92.819V26.651zm263.45 0v22.571l21.83-22.571h5.537l-16.29 16.518 17.004 21.28h-5.376l-14.616-18.302-8.088 8.152v10.15h-4.303V26.651zm75.276 0v3.945H435.83V43.38h43.39v3.953h-43.39v13.178h23.47v3.938h-27.754V26.651zm-103.743-.001v37.798h-4.299V26.65zm-39.755-.002c2.138 0 4.075.276 5.839.842 1.75.559 3.252 1.342 4.507 2.373a10.132 10.132 0 0 1 2.866 3.75c.672 1.478 1.024 3.152 1.024 5.026v.108c0 2.044-.404 3.843-1.196 5.377a11.682 11.682 0 0 1-3.236 3.851c-1.354 1.047-2.948 1.834-4.75 2.348-1.819.53-3.729.793-5.772.793h-9.23v13.332h-4.289v-37.8zm-156.937 0c2.352 0 4.45.34 6.284.998 1.822.664 3.332 1.597 4.525 2.784a9.816 9.816 0 0 1 2.177 3.294c.506 1.26.757 2.644.757 4.159v.103c0 1.55-.251 2.94-.757 4.193a9.944 9.944 0 0 1-2.138 3.237c-.925.92-2.022 1.674-3.3 2.27a17.759 17.759 0 0 1-4.126 1.32l11.68 15.44h-5.262l-11.035-14.683H146.54v14.683h-4.3V26.648zm53.61 3.293c-2.167 0-4.166.403-5.993 1.217-1.835.818-3.403 1.921-4.702 3.321a15.88 15.88 0 0 0-3.075 4.915c-.736 1.87-1.107 3.886-1.107 6.044v.111c0 2.157.371 4.186 1.107 6.075.75 1.885 1.79 3.542 3.123 4.938a15.107 15.107 0 0 0 4.756 3.352c1.826.83 3.836 1.236 6.009 1.236 2.172 0 4.179-.393 6-1.207a14.29 14.29 0 0 0 4.695-3.32 15.682 15.682 0 0 0 3.073-4.915c.747-1.874 1.106-3.888 1.106-6.045v-.114c0-2.16-.359-4.185-1.106-6.072a15.135 15.135 0 0 0-3.116-4.938 15.13 15.13 0 0 0-4.76-3.354c-1.837-.828-3.838-1.244-6.01-1.244zM57.053 36.885l-19.386 8.588 19.386 8.636zm258.167-6.292h-9.64V47.17h9.43c1.584 0 3.024-.2 4.3-.593 1.272-.398 2.36-.957 3.294-1.692a7.36 7.36 0 0 0 2.114-2.643c.499-1.02.748-2.143.748-3.364v-.108c0-2.687-.943-4.72-2.814-6.109-1.864-1.384-4.35-2.07-7.432-2.07zm-156.925 0H146.54v15.332h11.701c1.416 0 2.72-.177 3.923-.535 1.193-.363 2.223-.87 3.096-1.542a6.976 6.976 0 0 0 2.043-2.433c.492-.956.734-2.035.734-3.264v-.107c0-2.34-.852-4.162-2.553-5.477-1.71-1.315-4.099-1.974-7.19-1.974z"/>
</svg>
